images/icon.svg

<svg width="516" height="516" fill="none">
  <path d="M455 0H61C27.31 0 0 27.31 0 61v394c0 33.689 27.31 61 61 61h394c33.689 0 61-27.311 61-61V61c0-33.69-27.311-61-61-61z" fill="#3396CD"/>
  <path d="M199.15 146.94L490.5 89v81l-180.728 37c-9.033 72.983-67.861 161.7-116.332 225.5H73.21L25 144.15l105.31-10 25.61 205.17c23.8-38.82 53.23-99.82 53.23-141.38 0-22.77-3.9-38.25-10-51z" fill="#fff"/>
</svg>

<svg width="516" height="516" viewBox="0 0 516 516" fill="none" xmlns="http://www.w3.org/2000/svg">
<path d="M455 0H61C27.3106 0 0 27.3106 0 61V455C0 488.689 27.3106 516 61 516H455C488.689 516 516 488.689 516 455V61C516 27.3106 488.689 0 455 0Z" fill="#3396CD"/>
<path d="M199.15 146.94L490.5 89V170L309.772 207C300.739 279.983 241.911 368.7 193.44 432.5H73.21L25 144.15L130.31 134.15L155.92 339.32C179.72 300.5 209.15 239.5 209.15 197.94C209.15 175.17 205.25 159.69 199.15 146.94Z" fill="white"/>
</svg>
